X: 1
T: Banjaxed
M: 6/8
L: 1/8
R: jig
K: Gmaj
|:DGd B2B|DGd B2B|cBc ABc|BAG FED|
DGd B2B|DGd B2B|cBc Adc|AGF G3:|
|:c2c BcB|ABG FED|ded cdc|BAG A2B|
c2c BcB|ABG FED|DED ABc|AGF G3:|
|:DED FED|DAB cBA|d2d cdc|BAG ABA|
DED FED|DAB cBA|cBc Adc|AGF G3:|
